X: 475
T: A Whack At The Whigs
R: slip jig
M: 9/8
K: Gmajor
|:cAG G2d G2d|cAG G2d cAG|cAG G2d G2d|cde =f2d cAG:|
|:d2g faf g2g|d2g g2a bag|=f2f fge f2 f|cAc =f2d cAG:|

